svg/u1f4ee.svg

<svg viewBox="0 0 128 128" xmlns="http://www.w3.org/2000/svg">
  <defs/>
  <path d="M32.59,3.72 L95.69,3.72 C97.84,3.72 99.79,4.96 100.71,6.91 L104.89,17.42 L23.1,17.42 L27.63,6.78 C28.58,4.9 30.49,3.72 32.59,3.72 Z" fill="#C62828"/>
  <path d="M52.89,87.12 L75.11,87.12 L75.11,124 L52.89,124 L52.89,87.12 Z" fill="#78A3AC"/>
  <path d="M74.99,95.37 L52.89,95.37 L52.89,114.36 C52.89,114.36 56.29,112.1 63.59,113.07 C71.42,114.1 74.99,119.53 74.99,119.53 L74.99,95.37 Z" fill="#4B727B"/>
  <path d="M101.84,107.87 L26.16,107.87 C24.25,107.87 22.71,106.33 22.71,104.42 L22.71,19.01 C22.71,17.1 24.25,15.56 26.16,15.56 L101.83,15.56 C103.74,15.56 105.28,17.1 105.28,19.01 L105.28,104.42 C105.29,106.32 103.74,107.87 101.84,107.87 Z" fill="#F44336"/>
  <path d="M94.51,100.5 L33.49,100.5 Q31.717,100.5 30.463,99.247 Q29.21,97.993 29.21,96.22 L29.21,65.06 Q29.21,63.287 30.463,62.033 Q31.717,60.78 33.49,60.78 L94.52,60.78 Q96.293,60.78 97.547,62.033 Q98.8,63.287 98.8,65.06 L98.8,96.22 Q98.791,97.996 97.537,99.247 Q96.282,100.5 94.51,100.5 Z M94.51,98.64 Q96.926,98.64 96.94,96.22 L96.94,65.06 Q96.94,64.058 96.231,63.349 Q95.522,62.64 94.52,62.64 L33.49,62.64 Q32.488,62.64 31.779,63.349 Q31.07,64.058 31.07,65.06 L31.07,96.22 Q31.07,97.222 31.779,97.931 Q32.488,98.64 33.49,98.64 Z" fill="#C62828"/>
  <path d="M45.24,82.45 C45.16,83.24 45.78,83.92 46.57,83.92 L96.22,83.92 C97.07,83.92 97.7,83.14 97.53,82.31 L90.8,45.11 C90.8,45.11 96.42,44.93 96.68,42.55 C96.94,40.17 96.57,39.8 96.49,37.34 C96.41,34.87 89.19,29.32 89.19,29.32 L36.27,31.82 L40.76,42.67 L48.04,42.8 L48.42,55.14 L45.24,82.45 Z" fill="#C62828"/>
  <path d="M85.15,43.63 L42.85,43.63 C41.7,43.63 40.76,42.7 40.76,41.54 L40.76,35.58 L87.24,35.58 L87.24,41.54 C87.24,42.69 86.31,43.63 85.15,43.63 Z" fill="#4E342E"/>
  <path d="M82.07,31.63 L91.7,71.41 C91.94,72.63 90.89,72.85 89.89,72.85 L38.63,72.85 C37.63,72.85 36.57,72.52 36.82,71.41 L45.93,31.63 C45.93,30.84 46.74,30.19 47.74,30.19 L80.27,30.19 C81.26,30.19 81.7,30.5 82.07,31.63 Z" fill="#FFFFFF"/>
  <path d="M84.71,42.26 L43.47,42.37 L45.52,33.43 L82.24,32.31 Z" fill="#E0E0E0"/>
  <path d="M89.79,70.74 L63.84,54.95 L67.16,52.43 C69.23,50.65 69.2,48 67.09,46.25 L63.61,43.35 L80.42,31.54 C80.72,31.31 80.84,31.11 80.64,30.9 C80.51,30.77 80.27,30.8 80,30.99 L61.98,42 L48.7,30.92 C48.46,30.71 47.62,30.78 48.29,31.42 L64.71,47.06 C66.16,48.42 66.1,50.14 64.26,51.72 L38.75,70.84 C38.51,71.05 38.17,71.32 38.35,71.6 C38.56,71.93 39.07,71.75 39.3,71.53 L60.87,56.73 L89.35,71.29 C89.35,71.29 89.99,71.72 90.2,71.4 C90.41,71.08 89.79,70.74 89.79,70.74 Z" fill="#6FBFF0"/>
  <path d="M90.041,70.307 Q90.249,70.424 90.422,70.592 Q90.976,71.129 90.618,71.674 Q90.27,72.205 89.526,71.935 Q89.297,71.852 89.098,71.723 L60.907,57.311 L39.613,71.922 Q39.311,72.194 38.902,72.264 Q38.251,72.376 37.929,71.87 Q37.525,71.242 38.382,70.498 Q38.408,70.475 38.421,70.464 L38.435,70.451 L63.947,51.33 Q65.138,50.302 65.22,49.268 Q65.298,48.297 64.365,47.422 L47.945,31.782 Q47.583,31.436 47.542,31.105 Q47.479,30.609 47.946,30.396 Q48.544,30.124 49.024,30.539 L62.025,41.386 L79.726,30.571 Q80.489,30.042 80.994,30.546 L80.998,30.551 L81.002,30.555 Q81.368,30.939 81.181,31.4 Q81.072,31.671 80.724,31.937 L80.716,31.943 L64.432,43.384 L67.409,45.865 Q69.17,47.325 69.192,49.323 Q69.215,51.322 67.486,52.809 L67.474,52.819 L64.727,54.904 L90.041,70.307 Z M85.966,68.998 L62.953,54.996 L66.845,52.041 Q68.21,50.861 68.193,49.334 Q68.175,47.8 66.771,46.635 L62.788,43.316 L76.157,33.924 L61.935,42.614 L52.518,34.757 L65.055,46.698 Q66.333,47.897 66.217,49.347 Q66.101,50.798 64.586,52.099 L64.573,52.11 L41.336,69.527 L60.833,56.149 L85.966,68.998 Z M48.375,31.3 L48.371,31.296 L48.361,31.306 Q48.368,31.303 48.375,31.3 Z" fill="#6FBFF0"/>
  <path d="M88.37,35.58 L38.47,35.58 C37.25,35.58 36.26,34.59 36.26,33.37 L36.26,31.81 L90,27.03 L90.79,33.14 C90.8,34.49 89.71,35.58 88.37,35.58 Z" fill="#F44336"/>
  <path d="M86.86,33.37 L40.1,33.37 C38.22,33.37 36.84,31.92 37.29,30.42 C37.29,30.42 38.21,26.68 39.5,26.68 L87.8,26.68 C89.09,26.68 89.06,30.56 89.06,30.56 C89.51,32.06 88.74,33.37 86.86,33.37 Z" fill="#FF7555"/>
  <path d="M38.73,26.87 C39.39,26.51 42.66,26.24 42.5,27.4 C42.43,27.9 41.87,31.07 41.59,31.79 C41.36,32.37 41.42,33.39 40.1,33.38 C39.59,33.38 37.43,33.37 37.03,33.16 C36.27,32.76 36.75,31.91 36.93,31.32 C37.6,29.2 38.24,27.13 38.73,26.87 Z" fill="#FF9D83"/>
  <path d="M93.92,62.64 L89.67,62.64 L89.2,60.78 L93.61,60.78 Z" fill="#4E342E" opacity="0.3"/>
</svg>

<svg viewBox="0 0 128 128" xmlns="http://www.w3.org/2000/svg">
  <g>
    <path d="M32.59,3.72h63.1c2.15,0,4.1,1.24,5.02,3.19l4.18,10.51H23.1l4.53-10.64 C28.58,4.9,30.49,3.72,32.59,3.72z" fill="#C62828"/>
    <rect height="36.88" fill="#78A3AC" width="22.22" x="52.89" y="87.12"/>
    <path d="M74.99,95.37h-22.1v18.99c0,0,3.4-2.26,10.7-1.29c7.83,1.03,11.4,6.46,11.4,6.46V95.37z" fill="#4B727B"/>
    <path d="M101.84,107.87H26.16c-1.91,0-3.45-1.54-3.45-3.45V19.01c0-1.91,1.54-3.45,3.45-3.45h75.67 c1.91,0,3.45,1.54,3.45,3.45v85.41C105.29,106.32,103.74,107.87,101.84,107.87z" fill="#F44336"/>
    <path d="M94.51,99.57H33.49 c-1.85,0-3.35-1.5-3.35-3.35V65.06c0-1.85,1.5-3.35,3.35-3.35h61.03c1.85,0,3.35,1.5,3.35,3.35v31.16 C97.86,98.07,96.36,99.57,94.51,99.57z" fill="none" stroke="#C62828" stroke-width="1.8609" stroke-miterlimit="10"/>
    <path d="M45.24,82.45c-0.08,0.79,0.54,1.47,1.33,1.47h49.65c0.85,0,1.48-0.78,1.31-1.61L90.8,45.11 c0,0,5.62-0.18,5.88-2.56c0.26-2.38-0.11-2.75-0.19-5.21c-0.08-2.47-7.3-8.02-7.3-8.02l-52.92,2.5l4.49,10.85l7.28,0.13l0.38,12.34 L45.24,82.45z" fill="#C62828"/>
    <path d="M85.15,43.63H42.85c-1.15,0-2.09-0.93-2.09-2.09v-5.96h46.48v5.96 C87.24,42.69,86.31,43.63,85.15,43.63z" fill="#4E342E"/>
    <g>
      <path d="M82.07,31.63l9.63,39.78c0.24,1.22-0.81,1.44-1.81,1.44H38.63c-1,0-2.06-0.33-1.81-1.44l9.11-39.78 c0-0.79,0.81-1.44,1.81-1.44h32.53C81.26,30.19,81.7,30.5,82.07,31.63z" fill="#FFFFFF"/>
      <polygon points="84.71,42.26 43.47,42.37 45.52,33.43 82.24,32.31 " fill="#E0E0E0"/>
      <path d="M89.79,70.74L63.84,54.95l3.32-2.52 c2.07-1.78,2.04-4.43-0.07-6.18l-3.48-2.9l16.81-11.81c0.3-0.23,0.42-0.43,0.22-0.64c-0.13-0.13-0.37-0.1-0.64,0.09L61.98,42 L48.7,30.92c-0.24-0.21-1.08-0.14-0.41,0.5l16.42,15.64c1.45,1.36,1.39,3.08-0.45,4.66L38.75,70.84c-0.24,0.21-0.58,0.48-0.4,0.76 c0.21,0.33,0.72,0.15,0.95-0.07l21.57-14.8l28.48,14.56c0,0,0.64,0.43,0.85,0.11S89.79,70.74,89.79,70.74z" fill="#6FBFF0" stroke="#6FBFF0" stroke-miterlimit="10"/>
    </g>
    <path d="M88.37,35.58h-49.9c-1.22,0-2.21-0.99-2.21-2.21v-1.56l53.74-4.78l0.79,6.11 C90.8,34.49,89.71,35.58,88.37,35.58z" fill="#F44336"/>
    <path d="M86.86,33.37H40.1c-1.88,0-3.26-1.45-2.81-2.95c0,0,0.92-3.74,2.21-3.74h48.3 c1.29,0,1.26,3.88,1.26,3.88C89.51,32.06,88.74,33.37,86.86,33.37z" fill="#FF7555"/>
    <path d="M38.73,26.87c0.66-0.36,3.93-0.63,3.77,0.53c-0.07,0.5-0.63,3.67-0.91,4.39 c-0.23,0.58-0.17,1.6-1.49,1.59c-0.51,0-2.67-0.01-3.07-0.22c-0.76-0.4-0.28-1.25-0.1-1.84C37.6,29.2,38.24,27.13,38.73,26.87z" fill="#FF9D83"/>
    <g opacity="0.3">
      <polygon points="93.92,62.64 89.67,62.64 89.2,60.78 93.61,60.78 " fill="#4E342E"/>
    </g>
  </g>
</svg>
